sequoia/src/pages/Main/Meet/assets/xgeneration.svg

<svg width="284" height="93" viewBox="0 0 284 93" fill="none" xmlns="http://www.w3.org/2000/svg">
<g clip-path="url(#clip0_672_31134)">
<path d="M90.1231 44.661H102.533V45.8223C102.533 48.0122 102.035 50.0141 101.04 51.8279C100.066 53.6197 98.6837 55.0354 96.8919 56.0751C95.1223 57.0926 93.0983 57.6014 90.8199 57.6014C88.63 57.6014 86.606 57.0815 84.7479 56.0419C82.9119 54.9801 81.4519 53.5423 80.368 51.7284C79.2841 49.8924 78.7422 47.8573 78.7422 45.6232C78.7422 43.389 79.2841 41.354 80.368 39.518C81.4519 37.682 82.9119 36.2442 84.7479 35.2045C86.606 34.1648 88.63 33.645 90.8199 33.645C93.5186 33.645 95.8633 34.3529 97.8542 35.7686C99.8671 37.1843 101.305 39.0866 102.168 41.4756H98.3187C97.5887 40.1042 96.5823 39.0203 95.2993 38.2239C94.0384 37.4276 92.5453 37.0294 90.8199 37.0294C89.2936 37.0294 87.889 37.4165 86.606 38.1908C85.3451 38.9428 84.3386 39.9714 83.5865 41.2765C82.8566 42.5816 82.4916 44.0305 82.4916 45.6232C82.4916 47.2159 82.8566 48.6647 83.5865 49.9698C84.3386 51.2749 85.3451 52.3035 86.606 53.0556C87.889 53.8077 89.2936 54.1838 90.8199 54.1838C92.8992 54.1838 94.6357 53.6308 96.0292 52.5247C97.4449 51.4187 98.3298 49.9256 98.6837 48.0454H90.1231V44.661Z" fill="white"/>
<path d="M110.152 46.9504V53.8188H119.974V57.2364H106.502V34.01H119.642V37.3944H110.152V43.5328H119.31V46.9504H110.152Z" fill="white"/>
<path d="M141.629 50.8325V34.01H145.147V57.2364H142.758L128.158 40.447V57.2364H124.608V34.01H127.03L141.629 50.8325Z" fill="white"/>
<path d="M154.431 46.9504V53.8188H164.253V57.2364H150.782V34.01H163.921V37.3944H154.431V43.5328H163.589V46.9504H154.431Z" fill="white"/>
<path d="M182.425 57.2364L174.926 48.1449H172.537V57.2364H168.887V34.01H176.187C177.824 34.01 179.25 34.3197 180.467 34.9391C181.684 35.5363 182.624 36.3769 183.287 37.4608C183.951 38.5226 184.283 39.7281 184.283 41.0775C184.283 42.6922 183.818 44.0969 182.889 45.2914C181.982 46.4638 180.721 47.2822 179.107 47.7467L186.97 57.2364H182.425ZM172.537 37.3944V44.7273H176.153C177.525 44.7273 178.598 44.3955 179.372 43.7319C180.146 43.0462 180.533 42.1614 180.533 41.0775C180.533 39.9936 180.146 39.1087 179.372 38.423C178.598 37.7373 177.525 37.3944 176.153 37.3944H172.537Z" fill="white"/>
<path d="M208.863 57.2364H204.948L202.824 51.662H193.036L190.913 57.2364H187.064L196.321 34.01H199.606L208.863 57.2364ZM201.597 48.2444L197.947 38.7216L194.297 48.2444H201.597Z" fill="white"/>
<path d="M217.323 57.2364H213.673V37.3944H207.8V34.01H223.196V37.3944H217.323V57.2364Z" fill="white"/>
<path d="M230.421 57.2364H226.771V34.01H230.421V57.2364Z" fill="white"/>
<path d="M247.038 57.6014C244.826 57.6014 242.791 57.0815 240.933 56.0419C239.075 54.9801 237.604 53.5423 236.52 51.7284C235.436 49.8924 234.894 47.8573 234.894 45.6232C234.894 43.389 235.436 41.365 236.52 39.5512C237.604 37.7152 239.075 36.2773 240.933 35.2377C242.791 34.1759 244.826 33.645 247.038 33.645C249.25 33.645 251.274 34.1759 253.11 35.2377C254.968 36.2773 256.439 37.7152 257.523 39.5512C258.607 41.365 259.149 43.389 259.149 45.6232C259.149 47.8573 258.607 49.8924 257.523 51.7284C256.439 53.5423 254.968 54.9801 253.11 56.0419C251.274 57.0815 249.25 57.6014 247.038 57.6014ZM247.038 54.1838C248.587 54.1838 249.991 53.8077 251.252 53.0556C252.535 52.3035 253.542 51.2749 254.272 49.9698C255.024 48.6647 255.4 47.2159 255.4 45.6232C255.4 44.0305 255.024 42.5816 254.272 41.2765C253.542 39.9493 252.535 38.9097 251.252 38.1576C249.991 37.4055 248.587 37.0294 247.038 37.0294C245.49 37.0294 244.074 37.4055 242.791 38.1576C241.508 38.9097 240.491 39.9493 239.738 41.2765C239.009 42.5816 238.644 44.0305 238.644 45.6232C238.644 47.2159 239.009 48.6647 239.738 49.9698C240.491 51.2749 241.508 52.3035 242.791 53.0556C244.074 53.8077 245.49 54.1838 247.038 54.1838Z" fill="white"/>
<path d="M280.486 50.8325V34.01H284.003V57.2364H281.614L267.015 40.447V57.2364H263.464V34.01H265.887L280.486 50.8325Z" fill="white"/>
</g>
<defs>
<clipPath id="clip0_672_31134">
<rect width="284.003" height="92.9055" fill="white"/>
</clipPath>
</defs>
</svg>

<svg width="284" height="93" fill="none" xmlns="http://www.w3.org/2000/svg"><g clip-path="url(#a)" fill="#fff"><path d="M90.12 44.66h12.41v1.16c0 2.2-.5 4.2-1.49 6-.97 1.8-2.36 3.22-4.15 4.26a11.96 11.96 0 0 1-6.07 1.52c-2.19 0-4.21-.52-6.07-1.56a11.79 11.79 0 0 1-6-10.42 11.79 11.79 0 0 1 6-10.42 12.23 12.23 0 0 1 6.07-1.55 11.62 11.62 0 0 1 11.35 7.83h-3.85a8.21 8.21 0 0 0-7.5-4.45 8.42 8.42 0 0 0-8.33 8.6 8.42 8.42 0 0 0 4.11 7.43 8.18 8.18 0 0 0 4.22 1.12c2.08 0 3.82-.55 5.2-1.66a7.15 7.15 0 0 0 2.66-4.47h-8.56v-3.39ZM110.15 46.95v6.87h9.82v3.42H106.5V34h13.14v3.38h-9.49v6.14h9.16v3.42h-9.16ZM141.63 50.83V34.01h3.52v23.23h-2.4l-14.6-16.8v16.8h-3.54V34h2.42l14.6 16.82ZM154.43 46.95v6.87h9.82v3.42h-13.47V34h13.14v3.38h-9.49v6.14h9.16v3.42h-9.16ZM182.43 57.24l-7.5-9.1h-2.4v9.1h-3.64V34h7.3c1.63 0 3.06.31 4.28.93a6.65 6.65 0 0 1 3.81 6.14c0 1.61-.46 3.02-1.4 4.21a7.1 7.1 0 0 1-3.77 2.46l7.86 9.49h-4.54Zm-9.9-19.85v7.34h3.62c1.38 0 2.45-.33 3.22-1a3.38 3.38 0 0 0 1.16-2.65c0-1.09-.38-1.97-1.16-2.66a4.69 4.69 0 0 0-3.22-1.03h-3.61ZM208.86 57.24h-3.91l-2.13-5.58h-9.78l-2.13 5.58h-3.85L196.32 34h3.29l9.25 23.23Zm-7.26-9-3.65-9.52-3.65 9.52h7.3ZM217.32 57.24h-3.65V37.39h-5.87v-3.38h15.4v3.38h-5.88v19.85ZM230.42 57.24h-3.65V34h3.65v23.23ZM247.04 57.6a11.97 11.97 0 0 1-10.52-5.87 11.78 11.78 0 0 1-1.63-6.1c0-2.24.55-4.27 1.63-6.08a11.64 11.64 0 0 1 4.41-4.31c1.86-1.06 3.9-1.6 6.1-1.6 2.22 0 4.24.54 6.08 1.6a11.64 11.64 0 0 1 4.41 4.31 11.6 11.6 0 0 1 1.63 6.07 11.78 11.78 0 0 1-6.04 10.42 12.1 12.1 0 0 1-6.07 1.56Zm0-3.42c1.55 0 2.95-.37 4.21-1.12a8.55 8.55 0 0 0 4.15-7.43c0-1.6-.38-3.05-1.13-4.35a8.03 8.03 0 0 0-3.02-3.12 8.07 8.07 0 0 0-4.21-1.13 8.25 8.25 0 0 0-7.3 4.25 8.76 8.76 0 0 0-1.1 4.34 8.35 8.35 0 0 0 8.4 8.56ZM280.49 50.83V34.01H284v23.23h-2.39l-14.6-16.8v16.8h-3.55V34h2.43l14.6 16.82Z"/></g><defs><clipPath id="a"><path fill="#fff" d="M0 0h284v92.91H0z"/></clipPath></defs></svg>
